X:1
T:When Each Other’s Face We See
T:When Each Other’s Face We See
T:John Robson Sweney
T:Frances Jane (Fanny) Crosby, 1891
T:Public Domain Courtesy of the Cyber Hymnal™
C:John Robson Sweney
Z:Public Domain
Z:Courtesy of the Cyber Hymnal™
%%score ( 1 2 ) ( 3 4 )
L:1/8
Q:1/4=108
M:4/4
K:Ab
V:1 treble 
V:2 treble 
V:3 bass 
V:4 bass 
V:1
 [CA]3 [CB] [CA]2 [CE]2 | [Ec]3 [Fd] [Ec]2 [CA]2 | [EB]3 [EB] [EB]2 [EG]2 | [=DA]2 [DF]2 E4 | %4
w: 1.~In the glor- y|of the Fa- ther|When our Lord shall|come a- gain,|
w: 2.~At the sound- ing|of the trum- pet,|When the dead in|Christ will rise,|
w: 3.~When the book of|life is o- pened,|With our names re-|cord- ed there,|
w: 4.~O that day of|joy is com- ing,|And its dawn is|draw- ing nigh;|
 [CA]3 [CB] [CA]2 [CE]2 | [Ec]3 [Fd] [Ec]2 [EA]2 | [FB]3 [FB] [Fd]2 [Fd]2 | %7
w: By His an- gel|guards at- tend- ed,|In His maj- est-|
w: And the bright- ness|of His pre- sence|Shall a- dorn the|
w: And with all the|saints tri- um- phant|We shall meet Him|
w: We are watch- ing,|we are wait- ing,|We shall hail it|
 [Ec]2 [DB]2 !fermata![CA]2 ||"^Refrain" [EA][Ac] | [Ae]3 [Ac] (Bc) (de) | [Ac]2 [EA]4 [EA][Ac] | %11
w: y to reign,||||
w: glow- ing skies,||||
w: in the air.||||
w: by and by.||||
 [Ae]3 [Ac] (Bc) [Gd]2 | [Ac]6 [Ec][DB] | [CA]3 [Ec] [CA]2 [DF]2 | [CE]2 [CA]4 [Ec][Ed] | %15
w: ||||
w: ||||
w: ||||
w: ||||
 [Ee]3 [Ae] [Gd]2 [GB]2 | [EA]8 |] %17
w: ||
w: ||
w: ||
w: ||
V:2
 x8 | x8 | x8 | x4 (E2 _D2) | x8 | x8 | x8 | x6 || x2 | x4 G2 G2 | x8 | x4 G2 x2 | x8 | x8 | x8 | %15
 x8 | x8 |] %17
V:3
 [A,,E,]3 [A,,E,] [A,,E,]2 [A,,A,]2 | [A,,A,]3 [A,,A,] [A,,A,]2 [A,,E,]2 | %2
w: ~ ~ ~ ~|~ ~ ~ ~|
 [E,G,]3 [E,G,] [E,G,]2 [E,B,]2 | [B,,B,]2 [B,,A,]2 [E,G,]4 | [A,,A,]3 [A,,E,] [A,,E,]2 [A,,A,]2 | %5
w: ~ ~ ~ ~|~ ~ ~|~ ~ ~ ~|
 A,3 A, A,2 [A,C]2 | [D,D]3 [D,D] [D,B,]2 [D,B,]2 | [E,A,]2 [E,G,]2 !fermata![A,,A,]2 || %8
w: ~ ~ ~ ~|~ ~ ~ ~|~ ~ ~|
 [A,C][A,E] | [A,C]3 [A,E] [E,E]2 [E,E]2 | [A,E]2 [A,C]4 [A,C][A,E] | [A,C]3 [A,E] [E,E]2 [E,E]2 | %12
w: What a|hal- le- lu- jah|cho- rus, What a|shout- ing there will|
 [A,E]6 [A,,A,][A,,E,] | [A,,E,]3 [A,,A,] [A,,A,]2 [A,,A,]2 | [A,,A,]2 [A,,E,]4 A,[A,B,] | %15
w: be, When we|ga- ther in the|morn- ing, And each|
 [A,C]3 [A,C] [E,B,]2 [E,D]2 | [A,,A,C]8 |] %17
w: o- ther’s face we|see!|
V:4
 x8 | x8 | x8 | x8 | x8 | A,3 A, A,2 x2 | x8 | x6 || x2 | x8 | x8 | x8 | x8 | x8 | x6 A, x | x8 | %16
 x8 |] %17

